local/share/icons/dracula-icons-main/symbolic/actions/align-vertical-top-symbolic.svg

<?xml version="1.0" encoding="UTF-8"?>
<svg xmlns="http://www.w3.org/2000/svg" xmlns:xlink="http://www.w3.org/1999/xlink" width="16" height="16" viewBox="0 0 16 16">
<defs>
<filter id="filter-remove-color" x="0%" y="0%" width="100%" height="100%">
<feColorMatrix color-interpolation-filters="sRGB" values="0 0 0 0 1 0 0 0 0 1 0 0 0 0 1 0 0 0 1 0" />
</filter>
<mask id="mask-0">
<g filter="url(#filter-remove-color)">
<rect x="-1.6" y="-1.6" width="19.2" height="19.2" fill="rgb(0%, 0%, 0%)" fill-opacity="0.1"/>
</g>
</mask>
<clipPath id="clip-0">
<rect x="0" y="0" width="5" height="5"/>
</clipPath>
<g id="source-13890" clip-path="url(#clip-0)">
<path fill-rule="nonzero" fill="rgb(21.176471%, 21.176471%, 21.176471%)" fill-opacity="0.931" d="M 3.175781 0.53125 L 2.382812 0.53125 L 2.382812 2.644531 L 3.175781 2.644531 Z M 1.589844 0.53125 L 0.792969 0.53125 L 0.792969 3.441406 L 1.589844 3.441406 Z M 1.589844 0.53125 "/>
</g>
</defs>
<path fill-rule="nonzero" fill="rgb(21.176471%, 21.176471%, 21.176471%)" fill-opacity="1" d="M 4.234375 0.265625 L 0 0.265625 L 0 0.792969 L 0.53125 0.792969 L 0.53125 3.570312 C 0.53125 3.644531 0.589844 3.703125 0.660156 3.703125 L 1.71875 3.703125 C 1.792969 3.703125 1.851562 3.644531 1.851562 3.570312 L 1.851562 0.792969 L 2.117188 0.792969 L 2.117188 2.777344 C 2.117188 2.851562 2.175781 2.910156 2.25 2.910156 L 3.308594 2.910156 C 3.34375 2.910156 3.375 2.894531 3.402344 2.871094 C 3.425781 2.847656 3.441406 2.8125 3.441406 2.777344 L 3.441406 0.792969 L 4.234375 0.792969 Z M 3.175781 0.792969 L 3.175781 2.644531 L 2.382812 2.644531 L 2.382812 0.792969 Z M 1.589844 0.792969 L 1.589844 3.441406 L 0.792969 3.441406 L 0.792969 0.792969 Z M 1.589844 0.792969 "/>
<g mask="url(#mask-0)">
<use xlink:href="#source-13890"/>
</g>
</svg>

<svg xmlns="http://www.w3.org/2000/svg" width="16" height="16" viewBox="0 0 4.233 4.233"><g fill="#363636"><path style="marker:none" d="M4.233.265H0v.529h.53v2.778c0 .073.058.132.131.132H1.72a.132.132 0 0 0 .132-.132V.794h.265v1.984c0 .073.059.132.132.132h1.058a.132.132 0 0 0 .133-.132V.794h.793zM3.175.794v1.852h-.794V.794zm-1.587 0V3.44H.794V.794z"/><path d="M3.175.53h-.794v2.116h.794zm-1.587 0H.794v2.91h.794z" opacity=".1" fill-opacity=".931"/></g></svg>
